X: 14
T:The Banshee
M:C
L:1/8
R:Reel
K:G
"A part 4 times"G2 GD EDB,D |GFGB d2 Bd | eged BAGA |
BAGE EDB,D :: eaag efge | dBBA B2>d2 |
eBBB egfg | dBBA B2>d2 | eaag efge |
dBBA B2>d2 | eged BAGA | BAGE ED D2 :|
